static/img/kroki/0e47bbac087d9a79c2a67c911235b801.svg

<?xml version="1.0" encoding="us-ascii" standalone="no"?><svg xmlns="http://www.w3.org/2000/svg" xmlns:xlink="http://www.w3.org/1999/xlink" contentStyleType="text/css" height="374px" preserveAspectRatio="none" style="width:353px;height:374px;" version="1.1" viewBox="0 0 353 374" width="353px" zoomAndPan="magnify"><defs/><g><!--class azure_compute_disk--><g id="elem_azure_compute_disk"><rect codeLine="23" fill="#3D176E" height="39.7891" id="azure_compute_disk" rx="2.5" ry="2.5" style="stroke:#000D19;stroke-width:0.5;" width="212" x="94" y="328.58"/><ellipse cx="109" cy="348.4745" fill="#ADD1B2" rx="11" ry="11" style="stroke:#181818;stroke-width:1.0;"/><path d="M111.9688,354.1152 Q111.3906,354.412 110.75,354.5527 Q110.1094,354.7089 109.4063,354.7089 Q106.9063,354.7089 105.5781,353.0683 Q104.2656,351.412 104.2656,348.287 Q104.2656,345.162 105.5781,343.5058 Q106.9063,341.8495 109.4063,341.8495 Q110.1094,341.8495 110.75,342.0058 Q111.4063,342.162 111.9688,342.4589 L111.9688,345.1777 Q111.3438,344.5995 110.75,344.3339 Q110.1563,344.0527 109.5313,344.0527 Q108.1875,344.0527 107.5,345.1308 Q106.8125,346.1933 106.8125,348.287 Q106.8125,350.3808 107.5,351.4589 Q108.1875,352.5214 109.5313,352.5214 Q110.1563,352.5214 110.75,352.2558 Q111.3438,351.9745 111.9688,351.3964 L111.9688,354.1152 Z " fill="#000000"/><text fill="#D9B8FF" font-family="Helvetica" font-size="17" lengthAdjust="spacing" textLength="170" x="128" y="354.3598">azure_compute_disk</text></g><!--class microsoft_resource--><g id="elem_microsoft_resource"><rect codeLine="26" fill="#3D176E" height="39.7891" id="microsoft_resource" rx="2.5" ry="2.5" style="stroke:#000D19;stroke-width:0.5;" width="200" x="7" y="167.79"/><ellipse cx="22" cy="187.6845" fill="#ADD1B2" rx="11" ry="11" style="stroke:#181818;stroke-width:1.0;"/><path d="M24.9688,193.3252 Q24.3906,193.622 23.75,193.7627 Q23.1094,193.9189 22.4063,193.9189 Q19.9063,193.9189 18.5781,192.2783 Q17.2656,190.622 17.2656,187.497 Q17.2656,184.372 18.5781,182.7158 Q19.9063,181.0595 22.4063,181.0595 Q23.1094,181.0595 23.75,181.2158 Q24.4063,181.372 24.9688,181.6689 L24.9688,184.3877 Q24.3438,183.8095 23.75,183.5439 Q23.1563,183.2627 22.5313,183.2627 Q21.1875,183.2627 20.5,184.3408 Q19.8125,185.4033 19.8125,187.497 Q19.8125,189.5908 20.5,190.6689 Q21.1875,191.7314 22.5313,191.7314 Q23.1563,191.7314 23.75,191.4658 Q24.3438,191.1845 24.9688,190.6064 L24.9688,193.3252 Z " fill="#000000"/><text fill="#D9B8FF" font-family="Helvetica" font-size="17" lengthAdjust="spacing" textLength="158" x="41" y="193.5698">microsoft_resource</text></g><!--class resource--><g id="elem_resource"><rect codeLine="29" fill="#3D176E" height="39.7891" id="resource" rx="2.5" ry="2.5" style="stroke:#000D19;stroke-width:0.5;" width="113" x="143.5" y="7"/><ellipse cx="158.5" cy="26.8945" fill="#ADD1B2" rx="11" ry="11" style="stroke:#181818;stroke-width:1.0;"/><path d="M161.4688,32.5352 Q160.8906,32.832 160.25,32.9727 Q159.6094,33.1289 158.9063,33.1289 Q156.4063,33.1289 155.0781,31.4883 Q153.7656,29.832 153.7656,26.707 Q153.7656,23.582 155.0781,21.9258 Q156.4063,20.2695 158.9063,20.2695 Q159.6094,20.2695 160.25,20.4258 Q160.9063,20.582 161.4688,20.8789 L161.4688,23.5977 Q160.8438,23.0195 160.25,22.7539 Q159.6563,22.4727 159.0313,22.4727 Q157.6875,22.4727 157,23.5508 Q156.3125,24.6133 156.3125,26.707 Q156.3125,28.8008 157,29.8789 Q157.6875,30.9414 159.0313,30.9414 Q159.6563,30.9414 160.25,30.6758 Q160.8438,30.3945 161.4688,29.8164 L161.4688,32.5352 Z " fill="#000000"/><text fill="#D9B8FF" font-family="Helvetica" font-size="17" lengthAdjust="spacing" textLength="71" x="177.5" y="32.7798">resource</text></g><!--class volume--><g id="elem_volume"><rect codeLine="32" fill="#3D176E" height="39.7891" id="volume" rx="2.5" ry="2.5" style="stroke:#000D19;stroke-width:0.5;" width="105" x="241.5" y="167.79"/><ellipse cx="256.5" cy="187.6845" fill="#ADD1B2" rx="11" ry="11" style="stroke:#181818;stroke-width:1.0;"/><path d="M259.4688,193.3252 Q258.8906,193.622 258.25,193.7627 Q257.6094,193.9189 256.9063,193.9189 Q254.4063,193.9189 253.0781,192.2783 Q251.7656,190.622 251.7656,187.497 Q251.7656,184.372 253.0781,182.7158 Q254.4063,181.0595 256.9063,181.0595 Q257.6094,181.0595 258.25,181.2158 Q258.9063,181.372 259.4688,181.6689 L259.4688,184.3877 Q258.8438,183.8095 258.25,183.5439 Q257.6563,183.2627 257.0313,183.2627 Q255.6875,183.2627 255,184.3408 Q254.3125,185.4033 254.3125,187.497 Q254.3125,189.5908 255,190.6689 Q255.6875,191.7314 257.0313,191.7314 Q257.6563,191.7314 258.25,191.4658 Q258.8438,191.1845 259.4688,190.6064 L259.4688,193.3252 Z " fill="#000000"/><text fill="#D9B8FF" font-family="Helvetica" font-size="17" lengthAdjust="spacing" textLength="63" x="275.5" y="193.5698">volume</text></g><!--reverse link microsoft_resource to azure_compute_disk--><g id="link_microsoft_resource_azure_compute_disk"><path codeLine="35" d="M127.315,223.3732 C145.185,253.8932 170.84,297.69 188.74,328.25 " fill="none" id="microsoft_resource-backto-azure_compute_disk" style="stroke:#FFAF37;stroke-width:2.0;"/><polygon fill="none" points="118.22,207.84,122.1372,226.4049,132.4927,220.3416,118.22,207.84" style="stroke:#FFAF37;stroke-width:2.0;"/></g><!--reverse link volume to azure_compute_disk--><g id="link_volume_azure_compute_disk"><path codeLine="36" d="M273.4895,223.3288 C255.4195,253.8488 229.47,297.69 211.38,328.25 " fill="none" id="volume-backto-azure_compute_disk" style="stroke:#FFAF37;stroke-width:2.0;"/><polygon fill="none" points="282.66,207.84,268.3266,220.272,278.6525,226.3856,282.66,207.84" style="stroke:#FFAF37;stroke-width:2.0;"/></g><!--reverse link resource to microsoft_resource--><g id="link_resource_microsoft_resource"><path codeLine="37" d="M179.685,62.5832 C161.815,93.1032 136.16,136.9 118.26,167.46 " fill="none" id="resource-backto-microsoft_resource" style="stroke:#FFAF37;stroke-width:2.0;"/><polygon fill="none" points="188.78,47.05,174.5073,59.5516,184.8628,65.6149,188.78,47.05" style="stroke:#FFAF37;stroke-width:2.0;"/></g><!--reverse link resource to volume--><g id="link_resource_volume"><path codeLine="38" d="M220.5105,62.5388 C238.5805,93.0588 264.53,136.9 282.62,167.46 " fill="none" id="resource-backto-volume" style="stroke:#FFAF37;stroke-width:2.0;"/><polygon fill="none" points="211.34,47.05,215.3475,65.5956,225.6734,59.482,211.34,47.05" style="stroke:#FFAF37;stroke-width:2.0;"/></g><!--SRC=[XP71Ri8m44Jl-GfBd952KHkGUW6aghsWglGUEVOQhCJUQEs0eEs_5qfQkKw0wyppxEnweoKmCBNVCmEc07A9AxMjEN73PaIuMs25n0PASJNEOlC9hRy9BBa1zWpL5hmMF2RUDrgK5fnZTu4rvw9S4pPMdkCzSUkE5bWVK8kAEpVpddJHU0ZAo6anKIecuz31M8wo1-XWI1AeHT8qbQDfZDmSTNNlFsAb3y16uT6MwA5JipFYXxhQyaG49JkB_leNExvoARLTi_j0Upjt8WlqJrzjkCJTYLQySk4Ovu40_Rw6HMShc4waodhXbqjm8awdO_pG4EG2JNtyzbngLxAF9FbgNQC5eKFbSmA73Ga8tJvjYrLZMgNdzUFdS3Zi6PgqxoxwKK8tEYREWSat]--></g></svg>

<svg xmlns="http://www.w3.org/2000/svg" width="353" height="374" viewBox="0 0 353 374"><rect width="212" height="39.789" x="94" y="328.58" fill="#3D176E" rx="2.5" ry="2.5" style="stroke:#000d19;stroke-width:.5"/><circle cx="109" cy="348.474" r="11" fill="#ADD1B2" style="stroke:#181818;stroke-width:1"/><path d="M111.969 354.115q-.578.297-1.219.438-.64.156-1.344.156-2.5 0-3.828-1.64-1.312-1.657-1.312-4.782t1.312-4.781q1.328-1.656 3.828-1.656.703 0 1.344.156.656.156 1.219.453v2.719q-.625-.579-1.219-.844-.594-.281-1.219-.281-1.344 0-2.031 1.078-.687 1.062-.687 3.156t.687 3.172q.688 1.062 2.031 1.062.625 0 1.219-.265.594-.281 1.219-.86z"/><text x="128" y="354.36" fill="#D9B8FF" font-family="Helvetica" font-size="17" textLength="170">azure_compute_disk</text><rect width="200" height="39.789" x="7" y="167.79" fill="#3D176E" rx="2.5" ry="2.5" style="stroke:#000d19;stroke-width:.5"/><circle cx="22" cy="187.685" r="11" fill="#ADD1B2" style="stroke:#181818;stroke-width:1"/><path d="M24.969 193.325q-.578.297-1.219.438-.64.156-1.344.156-2.5 0-3.828-1.64-1.312-1.657-1.312-4.782t1.312-4.781q1.328-1.656 3.828-1.656.703 0 1.344.156.656.156 1.219.453v2.719q-.625-.578-1.219-.844-.594-.281-1.219-.281-1.343 0-2.031 1.078-.687 1.062-.687 3.156t.687 3.172q.688 1.062 2.031 1.062.625 0 1.219-.265.594-.281 1.219-.86z"/><text x="41" y="193.57" fill="#D9B8FF" font-family="Helvetica" font-size="17" textLength="158">microsoft_resource</text><rect width="113" height="39.789" x="143.5" y="7" fill="#3D176E" rx="2.5" ry="2.5" style="stroke:#000d19;stroke-width:.5"/><circle cx="158.5" cy="26.895" r="11" fill="#ADD1B2" style="stroke:#181818;stroke-width:1"/><path d="M161.469 32.535q-.578.297-1.219.438-.64.156-1.344.156-2.5 0-3.828-1.64-1.312-1.657-1.312-4.782t1.312-4.781q1.328-1.656 3.828-1.656.703 0 1.344.156.656.156 1.219.453v2.719q-.625-.578-1.219-.844-.594-.281-1.219-.281-1.344 0-2.031 1.078-.687 1.062-.687 3.156t.687 3.172q.688 1.062 2.031 1.062.625 0 1.219-.265.594-.281 1.219-.86z"/><text x="177.5" y="32.78" fill="#D9B8FF" font-family="Helvetica" font-size="17" textLength="71">resource</text><rect width="105" height="39.789" x="241.5" y="167.79" fill="#3D176E" rx="2.5" ry="2.5" style="stroke:#000d19;stroke-width:.5"/><circle cx="256.5" cy="187.685" r="11" fill="#ADD1B2" style="stroke:#181818;stroke-width:1"/><path d="M259.469 193.325q-.578.297-1.219.438-.64.156-1.344.156-2.5 0-3.828-1.64-1.312-1.657-1.312-4.782t1.312-4.781q1.328-1.656 3.828-1.656.703 0 1.344.156.656.156 1.219.453v2.719q-.625-.578-1.219-.844-.594-.281-1.219-.281-1.344 0-2.031 1.078-.687 1.062-.687 3.156t.687 3.172q.688 1.062 2.031 1.062.625 0 1.219-.265.594-.281 1.219-.86z"/><text x="275.5" y="193.57" fill="#D9B8FF" font-family="Helvetica" font-size="17" textLength="63">volume</text><g fill="none"><path d="M127.315 223.373c17.87 30.52 43.525 74.317 61.425 104.877" style="stroke:#ffaf37;stroke-width:2"/><path d="m118.22 207.84 3.917 18.565 10.356-6.063z" style="stroke:#ffaf37;stroke-width:2"/></g><g fill="none"><path d="M273.49 223.329c-18.07 30.52-44.02 74.361-62.11 104.921" style="stroke:#ffaf37;stroke-width:2"/><path d="m282.66 207.84-14.333 12.432 10.325 6.114z" style="stroke:#ffaf37;stroke-width:2"/></g><g fill="none"><path d="M179.685 62.583c-17.87 30.52-43.525 74.317-61.425 104.877" style="stroke:#ffaf37;stroke-width:2"/><path d="m188.78 47.05-14.273 12.502 10.356 6.063z" style="stroke:#ffaf37;stroke-width:2"/></g><g fill="none"><path d="M220.51 62.539c18.07 30.52 44.02 74.361 62.11 104.921" style="stroke:#ffaf37;stroke-width:2"/><path d="m211.34 47.05 4.007 18.546 10.326-6.114z" style="stroke:#ffaf37;stroke-width:2"/></g></svg>
